X: 34
T:Mackilmoyle Reel
R:Reel
M:2/4
L:1/16
K:D
Ad|fdfd cdec|dBAF DFAc|BGBG FGAF|EA,A,E DFAd|
fdfd cdec|dBAF DFAc|BGBd cAce|d2f2 d2:|
|:d2|cdef gfg2|Aceg a^ga2|edef gfge|dfed cBA2|
Acef gfg2|Aceg a^ga2|Acef gfge|Acec d2:|
d2|:
